public/images/icons/tuning.svg

<svg fill="none" height="24" viewBox="0 0 26 24" width="26" xmlns="http://www.w3.org/2000/svg"><g stroke="#fff" stroke-linecap="round" stroke-linejoin="round" stroke-width="2.27273"><path d="m5.40909 22.3637v-7.9545"/><path d="m5.40909 9.86373v-7.95455"/><path d="m13.4092 22.3637v-10.2272"/><path d="m13.4091 7.591v-5.68182"/><path d="m21.4091 22.3637v-5.6818"/><path d="m21.4091 12.1365v-10.22732"/><path d="m2 14.4092h6.81818"/><path d="m10 7.59106h6.8182"/><path d="m18 16.6819h6.8182"/></g></svg>

<svg width="26" height="24" viewBox="0 0 26 24" fill="none" xmlns="http://www.w3.org/2000/svg">
<path d="M5.40909 22.3637V14.4092" stroke="white" stroke-width="2.27273" stroke-linecap="round" stroke-linejoin="round"/>
<path d="M5.40909 9.86373V1.90918" stroke="white" stroke-width="2.27273" stroke-linecap="round" stroke-linejoin="round"/>
<path d="M13.4092 22.3637V12.1365" stroke="white" stroke-width="2.27273" stroke-linecap="round" stroke-linejoin="round"/>
<path d="M13.4091 7.591V1.90918" stroke="white" stroke-width="2.27273" stroke-linecap="round" stroke-linejoin="round"/>
<path d="M21.4091 22.3637V16.6819" stroke="white" stroke-width="2.27273" stroke-linecap="round" stroke-linejoin="round"/>
<path d="M21.4091 12.1365V1.90918" stroke="white" stroke-width="2.27273" stroke-linecap="round" stroke-linejoin="round"/>
<path d="M2 14.4092H8.81818" stroke="white" stroke-width="2.27273" stroke-linecap="round" stroke-linejoin="round"/>
<path d="M10 7.59106H16.8182" stroke="white" stroke-width="2.27273" stroke-linecap="round" stroke-linejoin="round"/>
<path d="M18 16.6819H24.8182" stroke="white" stroke-width="2.27273" stroke-linecap="round" stroke-linejoin="round"/>
</svg>
